X:1
T:The Coachman
M:3/4
L:1/4
K:C
 z2 e| e ee/2-e/2| e f g| a e2-| e z e| d d d| d e f| e3-| e2 e| e ef/2-e/2|\
 d e d| c A2-| A2A/2-B/2| e f e| d B c| A3-| A2 e/2e/2| A2 a| a a a|\
 a b a| a g2-| g2 z| a a a| a g f| g3| _a2 a| =a e e| d e d| c A2-|\
 A2 e| e f e| d B c| A3-| A z z|
